packages/icon/src/svg/podcast.icon.svg

<svg width="24" height="24" viewBox="0 0 24 24" fill="none" xmlns="http://www.w3.org/2000/svg">
<path fill-rule="evenodd" clip-rule="evenodd" d="M5.17542 20.3093C5.23853 20.3682 5.31836 20.4395 5.41516 20.5229C5.44507 20.5488 5.47974 20.5684 5.51721 20.5807C5.67432 20.6324 5.84363 20.5471 5.89526 20.39C5.97937 20.1348 6.10571 19.7926 6.27441 19.3634C6.34741 19.1777 6.3031 18.9664 6.1615 18.8257C6.07153 18.7364 5.99915 18.662 5.94421 18.6027C4.58228 17.1314 3.75 15.1629 3.75 13C3.75 8.44366 7.4436 4.75 12 4.75C16.5564 4.75 20.25 8.44366 20.25 13C20.25 15.1411 19.4344 17.0916 18.097 18.5579C18.0328 18.6282 17.9464 18.7175 17.8379 18.8256C17.6967 18.9662 17.6525 19.1773 17.7253 19.3628C17.8942 19.7924 18.0206 20.1348 18.1047 20.3902C18.1171 20.4277 18.1367 20.4625 18.1626 20.4924C18.2709 20.6179 18.4603 20.6319 18.5859 20.5236C18.6444 20.4731 18.6946 20.4288 18.7363 20.3907C20.7417 18.562 22 15.9279 22 13C22 7.47717 17.5228 3 12 3C6.47717 3 2 7.47717 2 13C2 15.8847 3.22144 18.4841 5.17542 20.3093ZM7.14404 16.5249L7.14539 16.5267C7.16528 16.554 7.18787 16.5793 7.21289 16.6021C7.41711 16.7879 7.73328 16.7731 7.91919 16.5689L8.43701 16.0001C8.59399 15.8278 8.61096 15.5699 8.47803 15.3784C8.46094 15.3537 8.44568 15.3311 8.43237 15.3106C8.00073 14.6454 7.75 13.852 7.75 13C7.75 10.6528 9.65283 8.75 12 8.75C14.3472 8.75 16.25 10.6528 16.25 13C16.25 13.8187 16.0184 14.5834 15.6174 15.2321C15.5918 15.2734 15.5599 15.3214 15.5216 15.3763C15.3879 15.5678 15.4047 15.8264 15.562 15.9991L16.0978 16.5876C16.1191 16.6111 16.1428 16.6324 16.1683 16.6512C16.3817 16.8079 16.6818 16.762 16.8386 16.5486C17.5687 15.5548 18 14.3278 18 13C18 9.68628 15.3137 7 12 7C8.68628 7 6 9.68628 6 13C6 14.3172 6.42444 15.5353 7.14404 16.5249ZM12 16.5C13.8121 16.5 15.2139 18.0052 16.205 21.0155C16.3345 21.4089 16.1206 21.8328 15.7272 21.9624C15.6515 21.9873 15.5723 22 15.4927 22H8.50732C8.09314 22 7.75732 21.6642 7.75732 21.25C7.75732 21.1703 7.77002 21.0911 7.79492 21.0154C8.78613 18.0051 10.1877 16.5 12 16.5ZM9.75 13C9.75 14.2426 10.7573 15.25 12 15.25C13.2427 15.25 14.25 14.2426 14.25 13C14.25 11.7574 13.2427 10.75 12 10.75C10.7573 10.75 9.75 11.7574 9.75 13Z" fill="white"/>
</svg>

<svg aria-label="podcast icon" viewBox="0 0 24 24"><path fill-rule="evenodd" clip-rule="evenodd" d="M5.175 20.31c.064.058.143.13.24.213a.3.3 0 00.48-.133c.084-.255.21-.597.38-1.027a.5.5 0 00-.114-.537A8.22 8.22 0 013.75 13a8.25 8.25 0 1114.348 5.558c-.064.07-.15.16-.26.268a.5.5 0 00-.112.537c.17.43.296.772.38 1.027a.3.3 0 00.48.134A9.974 9.974 0 0022 13c.001-5.523-4.476-10-9.999-10C6.477 3 2 7.477 2 13a9.973 9.973 0 003.175 7.31zm1.969-3.785l.001.002a.502.502 0 00.774.042L8.437 16a.5.5 0 00.041-.622A4.23 4.23 0 017.75 13a4.25 4.25 0 117.772 2.376.5.5 0 00.04.623l.536.589a.478.478 0 00.74-.04 6 6 0 10-9.695-.024zM12 16.5c1.812 0 3.214 1.505 4.205 4.515a.75.75 0 01-.712.985H8.507a.75.75 0 01-.712-.985C8.786 18.005 10.188 16.5 12 16.5zM9.75 13a2.25 2.25 0 104.5 0 2.25 2.25 0 00-4.5 0z"/></svg>
